X:63
T: ES DUNKELT IN DEM WALDE
N: E0679C
O: Europa, Mitteleuropa, Deutschland, Pommern
R: Liebes - Lied, Leid, Klage
M: 6/8
L: 1/8
K: Bb
F | F2BBAG | G2FF2
B | BDGFFE | D3z2
F | FDFFDF | B2cd2
d | eccAGA | B3z2

@@@ Tune index: 4376
